X:79801
T:Mingulay Boat Song
H: The "Mingulay Boat Song" is a song written by Sir Hugh S. Roberton (1874–1952) in the 1930s. The melody is described in Roberton's Songs of the Isles as a traditional Gaelic tune, probably titled "Lochaber".[1] The tune was part of an old Gaelic song, "Òran na Comhachaig" (the 'Creag Ghuanach' portion); from Brae Lochaber.[2][failed verification] The song describes fishermen sailing homeward to the isle of Mingulay where their families wait.
C: Sir Hugh S. Roberton (1937) 
B: Scots Guards II(124)
O:Kevin Fraser
Z:Kevin Fraser
Q:3/8=60
K:HP
M:9/8
L:1/8
R:Aire
U: R = ///
U: r = //
U: V = !accent!
V:M gstem=up stem=down name="Melody"
V:H gstem=up stem=down name="Harmony"
V:C gstem=up stem=down name="C-Harmony"
V:S gstem=up stem=down dyn=up stafflines=1 clef=perc middle=G name="Snare" sname="Snare"
V:B gstem=up stem=down clef=none dyn=up name="Bass"
V:T gstem=up stem=down clef=none dyn=up name="Tenor"
I:MIDI=program 110
%%MIDI gracedivider 4
%%MIDI gchord
%%MIDI beatstring 
% %landscape
I:linebreak $
%%score {M H C}
%%MIDI program 109 #bagpipes
%%MIDI vol 100
[V:M][| {g}A2B  {Gdc}d3 {gdc}d3 | {ag}a2f    {gfg}f2e {Gdc}d3  | {g}fed {gef}e3 {A}e2d   | {g}f>ed  {G}B3 {Gdc}d3 | $
[V:M] | {g}A2B  {Gdc}d3 {gdc}d3 | {ag}a2f    {gfg}f2e {Gdc}d3  | {g}fed {gef}e3 {A}e2d   | {g}f>ed  {gdc}d6       |] $
[V:M][| {g}A2B  {Gdc}d3 {gdc}d3 | {gef}ede   {gfg}f3  {AGAG}A3 | {g}A2B {Gdc}d3 {gdc}d3  | {gef}ede {gfg}f6       | $
[V:M] | {g}A2B  {Gdc}d3 {gdc}d3 | {gef}ede   {gfg}f3  {AGAG}A3 | {g}A2B {Gdc}d3 {g}A2f   | {gef}e2d {gdc}d6       |] $
[V:H][| {ag}a2g {g}f3   {e}f3   | {gfg}f2d   {gde}d2g {a}f3    | {g}def {gf}g3 {f}g2f    | {g}d>ef  {a}gfe {g}def | $
[V:H] | {ag}a2g {g}f3   {e}f3   | {gfg}f2d   {gde}d2g {a}f3    | {g}def {gf}g3 {f}g2f    | {g}f>ga  {fg}f6        |] $
[V:H][| {ag}a2g {g}f3   {e}f3   | {gf}g{a}fg a3       {g}a3    | {ag}a2g {g}f3 {e}f3     | {gf}g{a}fg a6          | $    
[V:H] | {ag}a2g {g}f3   {e}f3   | {gf}g{a}fe a3       {g}a3    | {ag}a2g {g}f3 {f}g2f    | {g}e>a{g}a  {fg}f6        |] $
[V:C][| {g}c2d  {gdc}d3 {ag}a3  | f2g         {ag}a3  {Gdc}d3  | {ag}a2f  {gf}g3 {f}g2f   | {g}d>ef {a}gfe {g}def | $
[V:C] | {g}c2d  {gdc}d3 {ag}a3  | f2g         {ag}a3  {Gdc}d3  | {ag}a2f  {gf}g3 {f}g2f   | {g}a>ef {Gdc}d6       |] $
[V:C][| {g}f2g  {ag}a3  {Gdc}d3 | {gf}g{a}fg  {gfg}f3 {g}e3    | {g}f2g   {ag}a3 {Gdc}d2c | {gBd}B2e {gcd}c3 {e}A3 | $
[V:C] | {g}f2g  {ag}a3  {Gdc}d3 | {gf}g{a}fg  {gfg}f3 {g}e3    | {g}e2f  {gf}g3 {f}g2f    | {g}a>ef  {Gdc}d6       |] $
W: This is not a trio.  Normal Harmony (seconds) to Melody porportion rules apply (3-1).  
W: Piper 5 is Melody, 6 is CounterHarony.
W:
W: Scots Guards' has this (melody only) written as a 3/4 with a bunch of triplets in it.
W:
W:Hill you ho, boys; Let her go, boys;
W:Bring her head round, now all together.
W:Hill you ho, boys; Let her go, boys;
W:Sailing home, home to Mingulay.
W:
W:What care we though white the Minch is?
W:What care we for wind or weather?
W:Let her go boys! ev'ry inch is
W:Wearing home, home to Mingulay.
W:
W:Wives are waiting on the bank, or
W:Looking seaward from the heather;
W:Pull her round boys! and we'll anchor,
W:Ere the sun sets at Mingulay.


